data/images/territory_flags/FR-D.svg

<svg height="360" width="600" xmlns="http://www.w3.org/2000/svg" xmlns:xlink="http://www.w3.org/1999/xlink"><path d="m0 0h600v360h-600z" fill="#da291c"/><g id="a"><path d="m280 20 20-20v45h-300v45h300v45h-300v45l20-20z" fill="#fff"/><path d="m280 160 20 20h-50v-180h-50v180h-50v-180h-50v180h-50v-180h-50l20 20z" fill="#fff"/><path d="m20 20h260v140h-260z" fill="#10069f"/><g id="b" fill="#fedd00"><path d="m43.85562 90.81755c-9.75535-3.86116-14.55784-9.70561-15.0735-17.95639-.33071-4.96009 4.62014-10.77788 9.92026-10.9123 16.55751-.4478 22.09311 26.54729 21.99327 33.13635-.69905-.002-4.14334-.07074-4.99781-.03764-.75463-4.1612-.10655-9.25894-5.39734-13.55779-5.2908-4.29876-7.62997-1.02305-8.29139 1.62235-.66141 2.6454 2.44206 7.97436 1.84651 7.70542z" fill="#fedd00"/><path d="m88.07878 90.81755c9.75535-3.86125 14.55784-9.70561 15.0735-17.95639.33071-4.96018-4.62015-10.77797-9.92027-10.9123-16.5575-.44789-22.09311 26.54729-21.99327 33.13635.69905-.0021 4.14334-.07083 4.99781-.03772.75464-4.1612.10655-9.25894 5.39735-13.55771 5.2908-4.29876 7.62997-1.02313 8.29138 1.62235.66142 2.64531-2.44206 7.97436-1.8465 7.70542z" fill="#fedd00"/><path d="m65.82955 30.46155c-11.25077 11.69879-14.27191 23.5972-6.77062 42.65722 2.57318 6.36621 3.66218 14.00515 3.5565 21.94527 1.089.02518 5.72518-.02771 6.82333-.10568-.09645-7.84367 1.20399-16.09838 3.76794-22.57035 8.68682-19.46435 2.42629-32.66745-7.0785-41.92646l-.14933-.148437z" fill="#fedd00"/><path d="m59.91872 99.55926c-2.30346 6.14788-6.36908 8.47146-9.69236 10.09964 5.06524 2.39816 10.91962-.20638 12.02134-1.44636-.13399 1.73351-.27121 6.41795.36154 9.5818.42855 2.55123 1.51328 4.02094 3.34463 6.05641 1.89826-1.98869 3.07229-3.59126 3.70504-5.85115.76883-3.28077-.04469-7.93446.02335-9.67215.87843 1.08046 7.88453 3.68064 12.49457 1.42075-4.29205-1.87064-8.45125-4.04864-9.80509-10.30386-.5019.03093-11.18752.02449-12.45302.02449z" fill="#fedd00"/><path d="m52.779881 95.248093h26.65843v3.9655h-26.65843z" fill="#fedd00"/></g><use fill="#fedd00" height="100%" width="100%" x="84" xlink:href="#b" y="30"/><use fill="#fedd00" height="100%" width="100%" x="168" xlink:href="#b"/></g><g id="c" fill="#fedd00"><path d="m330 30h240v120h-240z" fill="#10069f"/><path d="m570 70v-40h-80zm-160-40h-80l240 120v-40zm-80 40v40l80 40h80z" fill="#fedd00"/></g><g fill="#10069f"><use x="-300" xlink:href="#c" y="180"/><use x="300" xlink:href="#a" y="180"/></g></svg>

<svg xmlns="http://www.w3.org/2000/svg" xmlns:xlink="http://www.w3.org/1999/xlink" height="600" width="1000"><g transform="scale(1.6666667)"><path d="M 0,0 H 600 V 360 H 0 Z" fill="#da291c"/><g id="c"><path d="M 280,20 300,0 V 45 H 0 v 45 h 300 v 45 H 0 v 45 l 20,-20 z" fill="#fff"/><path d="m 280,160 20,20 H 250 V 0 H 200 V 180 H 150 V 0 H 100 V 180 H 50 V 0 H 0 l 20,20 z" fill="#fff"/><path d="M 20,20 H 280 V 160 H 20 Z" fill="#10069f"/><g id="a" fill="#fedd00"><path d="m 43.85562,90.81755 c -9.75535,-3.86116 -14.55784,-9.70561 -15.0735,-17.95639 -0.33071,-4.96009 4.62014,-10.77788 9.92026,-10.9123 16.55751,-0.4478 22.09311,26.54729 21.99327,33.13635 -0.69905,-0.002 -4.14334,-0.07074 -4.99781,-0.03764 -0.75463,-4.1612 -0.10655,-9.25894 -5.39734,-13.55779 -5.2908,-4.29876 -7.62997,-1.02305 -8.29139,1.62235 -0.66141,2.6454 2.44206,7.97436 1.84651,7.70542 z"/><path d="m 88.07878,90.81755 c 9.75535,-3.86125 14.55784,-9.70561 15.0735,-17.95639 0.33071,-4.96018 -4.62015,-10.77797 -9.92027,-10.9123 -16.5575,-0.44789 -22.09311,26.54729 -21.99327,33.13635 0.69905,-0.0021 4.14334,-0.07083 4.99781,-0.03772 0.75464,-4.1612 0.10655,-9.25894 5.39735,-13.55771 5.2908,-4.29876 7.62997,-1.02313 8.29138,1.62235 0.66142,2.64531 -2.44206,7.97436 -1.8465,7.70542 z"/><path d="m 65.82955,30.46155 c -11.25077,11.69879 -14.27191,23.5972 -6.77062,42.65722 2.57318,6.36621 3.66218,14.00515 3.5565,21.94527 1.089,0.02518 5.72518,-0.02771 6.82333,-0.10568 -0.09645,-7.84367 1.20399,-16.09838 3.76794,-22.57035 8.68682,-19.46435 2.42629,-32.66745 -7.0785,-41.92646 l -0.14933,-0.148437 z"/><path d="m 59.91872,99.55926 c -2.30346,6.14788 -6.36908,8.47146 -9.69236,10.09964 5.06524,2.39816 10.91962,-0.20638 12.02134,-1.44636 -0.13399,1.73351 -0.27121,6.41795 0.36154,9.5818 0.42855,2.55123 1.51328,4.02094 3.34463,6.05641 1.89826,-1.98869 3.07229,-3.59126 3.70504,-5.85115 0.76883,-3.28077 -0.04469,-7.93446 0.02335,-9.67215 0.87843,1.08046 7.88453,3.68064 12.49457,1.42075 -4.29205,-1.87064 -8.45125,-4.04864 -9.80509,-10.30386 -0.5019,0.03093 -11.18752,0.02449 -12.45302,0.02449 z"/><path d="m 52.779881,95.248093 h 26.65843 v 3.9655 h -26.65843 z"/></g><use y="30" xlink:href="#a" x="84" width="100%" height="100%" fill="#fedd00"/><use xlink:href="#a" x="168" width="100%" height="100%" fill="#fedd00"/></g><g id="b" fill="#fedd00"><path d="M 330,30 H 570 V 150 H 330 Z" fill="#10069f"/><path d="M 570,70 V 30 H 490 Z M 410,30 h -80 l 240,120 v -40 z m -80,40 v 40 l 80,40 h 80 z"/></g><g fill="#10069f"><use y="180" xlink:href="#b" x="-300" width="100%" height="100%"/><use y="180" xlink:href="#c" x="300" width="100%" height="100%"/></g></g></svg>
